X:1
T:Out on the Ocean
C: J-73
R:Jig
M:6/8
L:1/8
K:A
"A"E2c cBA| cec "A/C#"BcB| "D"AFE "Bm"A2B| "E7"cec BAF|\
"A"E2c cBA| cec "A/C#"BcB| "D"AFE "Bm"A2B|1 "E7"cAG "A"A2F:| \
                                         [2 "E7"cAG "A"Ace|]
\
"F#m"f3 fec| "D"fgf fec| "C#m"efe ecB| "E7sus4"e2e ecB|\
"A"A2B "A/C#"c2e| "D"faf "D#dim"ecB| "E7"AFE A2B| cAG "C#7/F"Ace|
"F#m"f3 fec| "D"fgf fec| "C#m"efe efg| "E7"agf ecB|\
"A"A2B "A/C#"c2e| "D"faf "A/C#"ecB| "D"AFE "Bm"A2B| "E7"cAG "A"A3|]
%
